X:1
T:O weigh me, Lord, in equal scale
T:Samuel Arnold
T:p185, ed W. D. Tattersall, Improved Psalmody, London: (1794)
T:This edition by Edmund Gooch released into the public domain, October 2012.
T:O weigh me, Lord, in equal scale
T:PSALM 43. Ver: 1. 2. 3. 4. 5. 6. 7. A Prayer against Oppressors, and for the joyful Restoration to the Privileges of the faithful in God’s Sanctuary.
C:Samuel Arnold
Z:p185, ed W. D. Tattersall,
Z:Improved Psalmody,
Z:London: (1794)
%%score [ 1 2 3 ]
L:1/8
M:4/4
K:Bmin
V:1 treble nm="Soprano" snm="S."
V:2 treble nm="Alto" snm="A."
V:3 bass nm="Bass" snm="B."
V:1
 z4 (B3 c) | d4 (c2 B2) | ^A4 B4 | c4 (B2 ^A2) | B4 d4 | e4 (e2 d2) | c4 d4 | e4 (d2 c2) | d4 c4 | %9
w: O _|let thy _|light at-|tend my _|way, Thy|truth af- *|ford its|stea- dy _|ray; To|
w: O _|weigh me, _|Lord, in|e- qual _|scale, And|let my _|in- jur’d|cause pre- *|vail; O|
w: God _|of my _|strength, to|thee I _|cry; Say|why by _|thee re-|jec- ted, _|why I|
 d4 d4 | c4 c4 | B4 B4 | ^A4 (B2 =A2) | ^G4 (A2 =G2) | F4 (B2 d2) | (d2 c2) (B2 ^A2) | B4 z4 |] %17
w: Si- on’s|hill di-|rect my|feet, And _|bring me _|to thy _|hal- * low’d _|seat.|
w: save me|from an|im- pious|throng, The _|sons of _|vi- o- *|lence _ and _|wrong.|
w: bend be-|neath a|weight of|woe And _|bear the _|in- sults _|of _ the _|foe.|
V:2
 z4 (B3 ^A) | B4 G4 | (F2 E2) D4 | G4 (F2 E2) | D4 B4 | (B2 A2) G4 | (A2 G2) F4 | (G2 B2) (A2 G2) | %8
w: O _|let thy|light _ at-|tend my _|way, Thy|truth _ af-|ford _ its|stea- * dy _|
w: O _|weigh me,|Lord, _ in|e- qual _|scale, And|let _ my|in- * jur’d|cause _ pre- *|
w: God _|of my|strength, _ to|thee I _|cry; Say|why _ by|thee _ re-|jec- * ted, _|
 F4 (A2 G2) | (F2 G2) (A2 B2) | (E2 G2) (F2 E2) | (D2 E2) (F2 G2) | (F2 E2) ^D4 | (E2 D2) C4 | %14
w: ray; To _|Si- * on’s _|hill _ di- *|rect _ my _|feet, _ And|bring _ me|
w: vail; O _|save _ me _|from _ an _|im- * pious _|throng, _ The|sons _ of|
w: why I _|bend _ be- *|neath _ a _|weight _ of _|woe _ And|bear _ the|
 D4 F4 | G4 (F2 E2) | D4 z4 |] %17
w: to thy|hal- low’d _|seat.|
w: vi- o-|lence and _|wrong.|
w: in- sults|of the _|foe.|
V:3
 z4 (D,3 C,) | B,,4 E,4 | F,4 G,4 | E,4 F,4 | B,,4 (B,2 A,2) | (G,2 F,2) E,4 | A,4 B,4 | G,4 A,4 | %8
w: O _|let thy|light at-|tend my|way, Thy _|truth _ af-|ford its|stea- dy|
w: O _|weigh me,|Lord, in|e- qual|scale, And _|let _ my|in- jur’d|cause pre-|
w: God _|of my|strength, to|thee I|cry; Say _|why _ by|thee re-|jec- ted,|
 D,4 A,4 | (D,2 E,2) (F,2 G,2) | A,4 ^A,,4 | (B,,2 C,2) (D,2 E,2) | %12
w: ray; To|Si- * on’s _|hill di-|rect _ my _|
w: vail; O|save _ me _|from an|im- * pious _|
w: why I|bend _ be- *|neath a|weight _ of _|
"^Admitted to thy altars there,My hands to thee the gift shall bear,Whose mercies, to my heart revealed,A theme of endless transport yield.Thy praise, O God, my God, the lyreShall wake, thy love its song inspire;And thankful teach the rapt’rous layThy bounteous goodness to display." F,4 B,,4 | %13
w: feet, And|
w: throng, The|
w: woe And|
"^Why thus, my soul, with care oppress’d?And whence the woes that fill my breast?In all thy cares, in all thy woes,On God thy stedfast hope repose.To him my thanks shall still be paid,My sure defence, my constant aid;His name my zeal shall ever raise,And dictate to my lips his praise." E,4 A,,4 | %14
w: bring me|
w: sons of|
w: bear the|
 D,4 D,4 | %15
w: to thy|
w: vi- o-|
w: in- sults|
 E,4"^Notes:The first verse only of the textis underlaid in the source, where thesubsequent verses given here areprinted after the music.This setting is attributed in the sourceto ‘Dr. Arnold’." F,4 | %16
w: hal- low’d|
w: lence and|
w: of the|
 B,,4 z4 |] %17
w: seat.|
w: wrong.|
w: foe.|

